resources/haticons/SVG/square.svg

<!-- Generated by IcoMoon.io -->
<svg version="1.1" xmlns="http://www.w3.org/2000/svg" width="24" height="24" viewBox="0 0 24 24">
<title>square</title>
<path d="M4.010 0c-2.215 0-4.010 1.795-4.010 4.010v0 15.98c0 2.21 1.8 4 4.010 4.010h15.98c2.21 0 4.010-1.8 4.010-4.010v-15.99c-0.006-2.21-1.799-4-4.010-4 0 0 0 0-0 0v0zM5.63 4.36h12.74c0.7 0 1.26 0.57 1.26 1.27v12.74c0 0.7-0.56 1.27-1.26 1.27h-12.74c-0.7 0-1.26-0.57-1.26-1.27v-12.74c0 0 0-0 0-0 0-0.698 0.563-1.264 1.259-1.27h0.001zM9.46 8.71c-0.403 0-0.73 0.327-0.73 0.73v0 5.090c0 0.4 0.32 0.72 0.72 0.72h5.1c0 0 0 0 0 0 0.4 0 0.724-0.321 0.73-0.719v-5.091c0-0.403-0.327-0.73-0.73-0.73v0z"></path>
</svg>

<svg xmlns="http://www.w3.org/2000/svg" width="24" height="24"><path d="M4.01 0A4.01 4.01 0 0 0 0 4.01v15.98c0 2.21 1.8 4 4.01 4.01h15.98C22.2 24 24 22.2 24 19.99V4a4.01 4.01 0 0 0-4.01-4zm1.62 4.36h12.74c.7 0 1.26.57 1.26 1.27v12.74c0 .7-.56 1.27-1.26 1.27H5.63c-.7 0-1.26-.57-1.26-1.27V5.63a1.27 1.27 0 0 1 1.259-1.27h.001zm3.83 4.35a.73.73 0 0 0-.73.73v5.09c0 .4.32.72.72.72h5.1a.73.73 0 0 0 .73-.719V9.44a.73.73 0 0 0-.73-.73z"/></svg>
